.gitbook/assets/CI Analytics (1).svg

<svg width="19" height="19" viewBox="0 0 19 19" fill="none" xmlns="http://www.w3.org/2000/svg">
<rect x="0.5" y="0.5" width="18" height="18" fill="#261F00"/>
<rect x="0.5" y="0.5" width="18" height="18" stroke="black"/>
<rect x="0.5" y="0.5" width="18" height="18" stroke="black" stroke-opacity="0.2"/>
<path fill-rule="evenodd" clip-rule="evenodd" d="M2.53333 5.21283C2.53333 3.73299 3.77241 2.53334 5.3009 2.53334H13.6991C15.2276 2.53334 16.4667 3.73299 16.4667 5.21283V9.83745C16.4667 10.1334 16.2188 10.3733 15.9131 10.3733H12.8013L11.3954 12.8075C11.2921 12.9864 11.0924 13.0925 10.8811 13.081C10.6697 13.0694 10.4837 12.9422 10.4018 12.7532L8.49453 8.35024L7.48447 10.099C7.38663 10.2684 7.20183 10.3733 7.00136 10.3733H3.64036V13.7872C3.64036 14.6751 4.38381 15.3949 5.30091 15.3949H13.6991C14.6162 15.3949 15.3596 14.6751 15.3596 13.7872V13.6341C15.3596 13.3381 15.6074 13.0982 15.9131 13.0982C16.2188 13.0982 16.4667 13.3381 16.4667 13.6341V13.7872C16.4667 15.267 15.2276 16.4667 13.6991 16.4667H5.30091C3.77241 16.4667 2.53333 15.267 2.53333 13.7872V9.83745C2.53333 9.54148 2.78114 9.30155 3.08684 9.30155H6.6767L8.08261 6.86742C8.18592 6.68855 8.38557 6.58238 8.59691 6.59393C8.80826 6.60548 8.99429 6.73272 9.07616 6.92171L10.9835 11.3247L11.9935 9.5759C12.0914 9.4065 12.2762 9.30155 12.4766 9.30155H15.3596V5.21283C15.3596 4.32492 14.6162 3.60514 13.6991 3.60514H5.3009C4.38381 3.60514 3.64036 4.32492 3.64036 5.21283V5.82528C3.64036 6.12125 3.39254 6.36118 3.08684 6.36118C2.78114 6.36118 2.53333 6.12125 2.53333 5.82528V5.21283Z" fill="#F2D664"/>
</svg>

<svg xmlns="http://www.w3.org/2000/svg" width="19" height="19" fill="none" viewBox="0 0 19 19"><path fill="#261F00" d="M.5.5h18v18H.5z"/><path stroke="#000" d="M.5.5h18v18H.5z"/><path stroke="#000" stroke-opacity=".2" d="M.5.5h18v18H.5z"/><path fill="#F2D664" fill-rule="evenodd" d="M2.533 5.213c0-1.48 1.24-2.68 2.768-2.68h8.398c1.529 0 2.768 1.2 2.768 2.68v4.624a.545.545 0 0 1-.554.536h-3.112l-1.406 2.434a.558.558 0 0 1-.514.274.553.553 0 0 1-.48-.328L8.496 8.35 7.485 10.1a.557.557 0 0 1-.484.274h-3.36v3.414c0 .888.743 1.608 1.66 1.608h8.398c.917 0 1.66-.72 1.66-1.608v-.153c0-.296.248-.536.554-.536.306 0 .554.24.554.536v.153c0 1.48-1.24 2.68-2.768 2.68H5.301c-1.529 0-2.768-1.2-2.768-2.68v-3.95c0-.296.248-.535.554-.535h3.59l1.406-2.435a.558.558 0 0 1 .514-.273.553.553 0 0 1 .48.328l1.906 4.403 1.01-1.75a.557.557 0 0 1 .484-.273h2.883v-4.09c0-.887-.744-1.607-1.66-1.607H5.3c-.916 0-1.66.72-1.66 1.608v.612a.545.545 0 0 1-.553.536.545.545 0 0 1-.554-.536v-.612Z" clip-rule="evenodd"/></svg>
